X: 468
T: Johnny Fill Up the Bowl
N:"Spirited" "collected by F.O'Neill"
N:Irish title: lion suas an cupan a .seanin
B:O'Neill's 468
Z:Transcribed by henrik.norbeck@mailbox.swipnet.se
M:6/8
L:1/8
K:Am
A/G/ | E2 A A2 B | c2 B c2 A | G3- G2 E | G3- G2 A |
E2 A A2 B | c2 B c2 d | e3- e2 c | e3- e2 (c/d/) |
e2 e edc | d2 d d2 B | c2 c cBA | B2 B B2 (c/d/) |
e2 z d2 z | c2 z B2 z | EAA A2 ^G | A3- A2 ||


